brandFactory_export/2.Regular/Cancelar_2Regular.svg

<?xml version="1.0" encoding="UTF-8"?>
<svg width="24px" height="24px" viewBox="0 0 24 24" version="1.1" xmlns="http://www.w3.org/2000/svg" xmlns:xlink="http://www.w3.org/1999/xlink">
    <title>2.Regular/Cancelar_2Regular</title>
    <g id="Symbols" stroke="none" stroke-width="1" fill="none" fill-rule="evenodd">
        <g id="2.Regular/Cancelar_2Regular" fill="#5CB615" fill-rule="nonzero">
            <path d="M17.5697479,6.04705882 C17.8588235,6.33613445 17.8588235,6.80336134 17.5697479,7.08907563 L12.8470588,11.8117647 L17.5663866,16.5310924 C17.8588235,16.8134454 17.8689076,17.2806723 17.5831933,17.5764706 C17.3008403,17.8689076 16.8336134,17.8789916 16.5378151,17.5932773 L16.5210084,17.5764706 L11.805042,12.8571429 L7.09915966,17.5630252 C6.81344538,17.8521008 6.34621849,17.8521008 6.05714286,17.5663866 L6.05378151,17.5630252 C5.76470588,17.2739496 5.76470588,16.8067227 6.05378151,16.5176471 L10.7596639,11.8117647 L6.05378151,7.10588235 C5.75462185,6.82689076 5.73781513,6.35966387 6.01680672,6.06386555 C6.29579832,5.76470588 6.76302521,5.74789916 7.05882353,6.02689076 L7.09579832,6.06386555 L11.8016807,10.7697479 L16.5210084,6.05042017 C16.8134454,5.75798319 17.2806723,5.75798319 17.5697479,6.04705882 C17.5663866,6.04705882 17.5663866,6.04705882 17.5697479,6.04705882 Z M11.8084034,22.1478992 C18.7630252,22.1478992 22.1478992,18.7663866 22.1478992,11.8151261 C22.1478992,4.8605042 18.7663866,1.47563025 11.8117647,1.47563025 C4.85714286,1.47563025 1.47898909,4.85714286 1.47898909,11.8151261 C1.47563025,18.7663866 4.85714286,22.1478992 11.8084034,22.1478992 Z M11.8084034,0 C19.2705882,0 23.6235294,3.77142857 23.6235294,11.8151261 C23.6235294,19.8621849 19.2705882,23.6235294 11.8084034,23.6235294 C4.34621849,23.6235294 0,19.8621849 0,11.8151261 C0,3.77142857 4.34621849,0 11.8084034,0 Z" id="Cancelar_2Regular"></path>
        </g>
    </g>
</svg>

<svg width="24" height="24" viewBox="0 0 24 24" xmlns="http://www.w3.org/2000/svg"><path d="M17.57 6.047c.289.29.289.756 0 1.042l-4.723 4.723 4.72 4.72a.738.738 0 11-1.03 1.061l-.016-.017-4.716-4.719-4.706 4.706a.737.737 0 01-1.042.003l-.003-.003a.738.738 0 010-1.045l4.706-4.706-4.706-4.706a.735.735 0 01-.037-1.042.735.735 0 011.042-.037l.037.037 4.706 4.706 4.719-4.72a.74.74 0 011.049-.003c-.004 0-.004 0 0 0zm-5.762 16.1c6.955 0 10.34-3.38 10.34-10.332 0-6.954-3.382-10.34-10.336-10.34-6.955 0-10.333 3.382-10.333 10.34-.003 6.951 3.378 10.333 10.33 10.333zm0-22.147c7.463 0 11.816 3.771 11.816 11.815 0 8.047-4.353 11.809-11.816 11.809C4.346 23.624 0 19.862 0 11.815 0 3.771 4.346 0 11.808 0z" fill="#5CB615" fill-rule="nonzero"/></svg>
